!!!OTL: MARIA GIENG AUS WANDERN
!!!ARE: Europa, Mitteleuropa, Deutschland, Mosel - Gegend, Cluesserath
!!!SCT: E2059
!!!YEM: Copyright 1995, estate of Helmut Schaffrath.
**kern
*ICvox
*Ivox
*M4/4
*k[f#]
*G:
{4d
=1
4g
4g
4a
8dd
8cc
=2
4b
4a
4g}
{4b
=3
4a
8f#
8g
8a
8g
8f#
8e
=4
2d
4r}
{4d
=5
4g
4g
4a
8a
8dd
=6
2.dd}
{8dd
8cc
=7
8b
8a
8g
8a
4b
4a
=8
2g
4r}
==
!!!AGN: geistlich, Marien - Lied, Legende
!!!ONB: ESAC (Essen Associative Code) Database: ERK3
!!!AMT: simple quadruple
!!!AIN: vox
!!!EED: Helmut Schaffrath
!!!EEV: 1.0
*-
